packages/ui-icons/svg/Line/cloud-lock.svg

<svg viewBox="0 0 1920 1920" version="1.1" xmlns="http://www.w3.org/2000/svg">
    <path d="M1027.71953,849.164706 C1152.40659,849.164706 1253.60188,950.472941 1253.60188,1075.04706 L1253.60188,1075.04706 L1253.60188,1187.98824 L1366.54306,1187.98824 L1366.54306,1583.28235 C1366.54306,1676.68471 1290.64659,1752.69412 1197.13129,1752.69412 L1197.13129,1752.69412 L858.307765,1752.69412 C764.905412,1752.69412 688.896,1676.68471 688.896,1583.28235 L688.896,1583.28235 L688.896,1187.98824 L801.837176,1187.98824 L801.837176,1075.04706 C801.837176,950.472941 903.145412,849.164706 1027.71953,849.164706 Z M1253.60188,1300.92941 L801.837176,1300.92941 L801.837176,1583.28235 C801.837176,1614.45412 827.248941,1639.75294 858.307765,1639.75294 L858.307765,1639.75294 L1197.13129,1639.75294 C1228.30306,1639.75294 1253.60188,1614.45412 1253.60188,1583.28235 L1253.60188,1583.28235 L1253.60188,1300.92941 Z M960,167 C1181.81647,167 1368.84706,310.661176 1438.08,509.211765 C1448.24471,508.534118 1458.07059,505.823529 1468.23529,505.823529 C1717.27059,505.823529 1920,708.44 1920,957.588235 C1920,1206.73647 1717.27059,1409.35294 1468.23529,1409.35294 L1468.23529,1409.35294 L1468.23529,1296.41176 C1655.04,1296.41176 1807.05882,1144.39294 1807.05882,957.588235 C1807.05882,770.783529 1655.04,618.764706 1468.23529,618.764706 C1466.31529,618.764706 1464.50824,619.329412 1462.58824,619.442353 C1464.73412,637.964706 1468.23529,656.148235 1468.23529,675.235294 C1468.23529,719.621176 1462.47529,763.555294 1451.29412,806.021176 L1451.29412,806.021176 L1342.08,776.882353 C1350.88941,744.016471 1355.29412,709.795294 1355.29412,675.235294 C1355.29412,457.258824 1177.97647,279.941176 960,279.941176 C747.557647,279.941176 574.870588,448.901176 566.287059,659.197647 C604.574118,677.72 640.715294,701.098824 671.887059,731.592941 L671.887059,731.592941 L592.941176,812.345882 C539.745882,760.28 469.609412,731.705882 395.294118,731.705882 C239.661176,731.705882 112.941176,858.425882 112.941176,1014.05882 C112.941176,1169.69176 239.661176,1296.41176 395.294118,1296.41176 L395.294118,1296.41176 L564.705882,1296.41176 L564.705882,1409.35294 L395.294118,1409.35294 C177.317647,1409.35294 0,1232.03529 0,1014.05882 C0,796.082353 177.317647,618.764706 395.294118,618.764706 C416.188235,618.764706 436.630588,621.475294 456.847059,624.750588 C482.597647,368.487059 697.072941,167 960,167 Z M1027.71953,962.105882 C965.488941,962.105882 914.778353,1012.81647 914.778353,1075.04706 L914.778353,1075.04706 L914.778353,1187.98824 L1140.66071,1187.98824 L1140.66071,1075.04706 C1140.66071,1012.81647 1090.06306,962.105882 1027.71953,962.105882 Z" stroke="none" stroke-width="1" fill-rule="evenodd"/>
</svg>

<svg viewBox="0 0 1920 1920" version="1.1" xmlns="http://www.w3.org/2000/svg">
    <path d="M1253.602 1075.047v112.941h112.941v395.294c0 93.403-75.896 169.412-169.412 169.412H858.308c-93.403 0-169.412-76.01-169.412-169.412v-395.294h112.941v-112.94c0-124.575 101.308-225.883 225.883-225.883 124.687 0 225.882 101.308 225.882 225.882zm0 508.235V1300.93H801.837v282.353c0 31.172 25.412 56.47 56.47 56.47h338.824c31.172 0 56.47-25.298 56.47-56.47zm-338.824-508.235v112.941h225.883v-112.94c0-62.232-50.598-112.942-112.941-112.942-62.231 0-112.942 50.71-112.942 112.941zm553.457-569.223c249.036 0 451.765 202.616 451.765 451.764s-202.73 451.765-451.765 451.765v-112.941c186.805 0 338.824-152.02 338.824-338.824s-152.019-338.823-338.824-338.823c-1.92 0-3.727.564-5.647.677 2.146 18.523 5.647 36.706 5.647 55.793 0 44.386-5.76 88.32-16.94 130.786l-109.215-29.139c8.81-32.866 13.214-67.087 13.214-101.647 0-217.976-177.318-395.294-395.294-395.294-212.442 0-385.13 168.96-393.713 379.257 38.287 18.522 74.428 41.9 105.6 72.395l-78.946 80.753c-53.195-52.066-123.332-80.64-197.647-80.64-155.633 0-282.353 126.72-282.353 282.353s126.72 282.353 282.353 282.353h169.412v112.94H395.294C177.318 1409.353 0 1232.036 0 1014.06c0-217.977 177.318-395.294 395.294-395.294 20.894 0 41.337 2.71 61.553 5.986C482.597 368.487 697.073 167 960 167c221.816 0 408.847 143.661 478.08 342.212 10.165-.678 19.99-3.388 30.155-3.388z" stroke="none" stroke-width="1" fill-rule="evenodd"/>
</svg>
